app/dist/common/images/dawning-information-industry.svg

<svg height="18" viewBox="0 0 18 18" width="18" xmlns="http://www.w3.org/2000/svg"><path d="m0 0h18v18h-18z" fill="#f0f3fa"/><path d="m6.22 14-.81-2h3.88c.72 0 1.71-.08 1.71-1s-.78-1-1.49-1h-1.57c-1.59 0-2.94-1.03-2.94-3.03 0-2.38 1.58-2.97 3.31-2.97h3.6l.62 2h-3.81c-.75.01-1.72 0-1.72.97 0 1.03.85 1.03 1.57 1.03h1.36c1.77 0 3.07.87 3.07 3.05 0 2.38-1.55 2.95-3.31 2.95z" fill="#b01f24"/></svg>

<!-- by TradingView --><svg width="18" height="18" viewBox="0 0 18 18" xmlns="http://www.w3.org/2000/svg"><path fill="#F0F3FA" d="M0 0h18v18H0z"/><path d="m6.22 14-.81-2h3.88c.72 0 1.71-.08 1.71-1s-.78-1-1.49-1H7.94C6.35 10 5 8.97 5 6.97 5 4.59 6.58 4 8.31 4h3.6l.62 2H8.72C7.97 6.01 7 6 7 6.97 7 8 7.85 8 8.57 8h1.36C11.7 8 13 8.87 13 11.05 13 13.43 11.45 14 9.69 14H6.22Z" fill="#B01F24"/></svg>
